X: 49
T:Donkey Riding
M:4/4
L:1/4
S:Jean
K:G
G>A BB |cA  B2 |BAAG/2A/2|BAA2|G>A BB |cA  B2|BAdd|G2G2:|
|eg dB | cd B2| BAAG/2A/2|BAA2|eg dB|cd B2|BAdd|G2G2:|
